icon-svg/rooms-office.svg

<svg xmlns="http://www.w3.org/2000/svg" fill="#44739e" viewBox="0 0 24 24"><path d="M26.5 14h-1c-.825 0-1.5.675-1.5 1.5v3.105c0 .44-.358.798-.798.798h-.007C22.284 17.963 20.688 17 18.857 17H17v-3h3.091C21.697 14 23 12.697 23 11.09l-1.273-9.844C21.623.531 21.01 0 20.287 0h-8.574c-.723 0-1.336.531-1.44 1.246L9 11.09C9 12.697 10.303 14 11.909 14H15v3h-1.857c-1.651 0-3.103.791-4.044 2h-.301c-.44 0-.798-.358-.798-.798v-2.903c0-.937-.766-1.702-1.701-1.702h-.598c-.935 0-1.701.765-1.701 1.702C4 16.234 4.766 17 5.701 17H6v1.202c0 1.323.926 2.429 2.162 2.719-.097.393-.162.799-.162 1.222 0 .473.384.857.857.857h6.016l-4.352 5.077C10.354 28.032 10.182 28 10 28c-1.104 0-2 .896-2 2s.896 2 2 2 2-.896 2-2c0-.29-.064-.564-.176-.812L15 25.482v2.795c-.596.347-1 .985-1 1.723 0 1.104.896 2 2 2s2-.896 2-2c0-.738-.404-1.376-1-1.723v-2.795l3.176 3.706A1.97 1.97 0 0 0 20 30c0 1.104.896 2 2 2s2-.896 2-2-.896-2-2-2c-.182 0-.354.032-.521.077L17.127 23h6.016c.473 0 .857-.384.857-.857 0-.289-.039-.568-.085-.843C25.111 20.982 26 19.9 26 18.605V17h.5c.825 0 1.5-.675 1.5-1.5s-.675-1.5-1.5-1.5"/></svg>

<?xml version="1.0" encoding="UTF-8"?>
<svg width="32px" height="32px" viewBox="0 0 32 32" fill="#44739e" version="1.1" xmlns="http://www.w3.org/2000/svg" xmlns:xlink="http://www.w3.org/1999/xlink">
            <path d="M26.5,14 L25.5,14 C24.675,14 24,14.675 24,15.5 L24,18.605 C24,19.045 23.642,19.403 23.202,19.403 L23.195,19.403 C22.284,17.963 20.688,17 18.857,17 L17,17 L17,14 L20.091,14 C21.697,14 23,12.697 23,11.09 L21.727,1.246 C21.623,0.531 21.01,0 20.287,0 L11.713,0 C10.99,0 10.377,0.531 10.273,1.246 L9,11.09 C9,12.697 10.303,14 11.909,14 L15,14 L15,17 L13.143,17 C11.492,17 10.04,17.791 9.099,19 L8.798,19 C8.358,19 8,18.642 8,18.202 L8,15.299 C8,14.362 7.234,13.597 6.299,13.597 L5.701,13.597 C4.766,13.597 4,14.362 4,15.299 C4,16.234 4.766,17 5.701,17 L6,17 L6,18.202 C6,19.525 6.926,20.631 8.162,20.921 C8.065,21.314 8,21.72 8,22.143 C8,22.616 8.384,23 8.857,23 L14.873,23 L10.521,28.077 C10.354,28.032 10.182,28 10,28 C8.896,28 8,28.896 8,30 C8,31.104 8.896,32 10,32 C11.104,32 12,31.104 12,30 C12,29.71 11.936,29.436 11.824,29.188 L15,25.482 L15,28.277 C14.404,28.624 14,29.262 14,30 C14,31.104 14.896,32 16,32 C17.104,32 18,31.104 18,30 C18,29.262 17.596,28.624 17,28.277 L17,25.482 L20.176,29.188 C20.064,29.436 20,29.71 20,30 C20,31.104 20.896,32 22,32 C23.104,32 24,31.104 24,30 C24,28.896 23.104,28 22,28 C21.818,28 21.646,28.032 21.479,28.077 L17.127,23 L23.143,23 C23.616,23 24,22.616 24,22.143 C24,21.854 23.961,21.575 23.915,21.3 C25.111,20.982 26,19.9 26,18.605 L26,17 L26.5,17 C27.325,17 28,16.325 28,15.5 C28,14.675 27.325,14 26.5,14"></path>
</svg>
